icons/dark/svg.svg

<svg width="16" height="16" viewBox="0 0 16 16" fill="none" xmlns="http://www.w3.org/2000/svg">
<path fill-rule="evenodd" clip-rule="evenodd" d="M4 1L3 2V14L4 15H13L14 14V5L13.7071 4.29289L10.7071 1.29289L10 1H4ZM4 14V2H9V6H13V14H4ZM13 5L10 2V5H13Z" fill="#C5C5C5"/>
<path d="M6.49625 9.12375H7.58708L6.81417 8.35083C6.51958 8.35083 6.28042 8.11167 6.28042 7.81417C6.28042 7.67261 6.33665 7.53685 6.43675 7.43675C6.53685 7.33665 6.67261 7.28042 6.81417 7.28042C7.11167 7.28042 7.35083 7.51958 7.35083 7.81417L8.12375 8.58708V7.49625C8.02419 7.39575 7.96833 7.26001 7.96833 7.11854C7.96833 6.97707 8.02419 6.84133 8.12375 6.74083C8.17288 6.69092 8.23144 6.65128 8.29604 6.62422C8.36063 6.59716 8.42997 6.58323 8.5 6.58323C8.57003 6.58323 8.63937 6.59716 8.70396 6.62422C8.76856 6.65128 8.82712 6.69092 8.87625 6.74083C9.08333 6.94792 9.08333 7.28625 8.87625 7.49625V8.58708L9.65208 7.81417C9.65208 7.67261 9.70832 7.53685 9.80842 7.43675C9.90851 7.33665 10.0443 7.28042 10.1858 7.28042C10.3274 7.28042 10.4632 7.33665 10.5633 7.43675C10.6633 7.53685 10.7196 7.67261 10.7196 7.81417C10.7196 8.11167 10.4804 8.35083 10.1858 8.35083L9.41292 9.12375H10.5038C10.6042 9.02418 10.74 8.96833 10.8815 8.96833C11.0229 8.96833 11.1587 9.02418 11.2592 9.12375C11.4692 9.33083 11.4692 9.66917 11.2592 9.87625C11.0521 10.0833 10.7138 10.0833 10.5038 9.87625H9.41292L10.1858 10.6521C10.4804 10.6521 10.7196 10.8883 10.7196 11.1858C10.7196 11.3274 10.6633 11.4632 10.5633 11.5633C10.4632 11.6633 10.3274 11.7196 10.1858 11.7196C9.88833 11.7196 9.65208 11.4804 9.65208 11.1858L8.87625 10.4129V11.5037C9.08333 11.7137 9.08333 12.0521 8.87625 12.2592C8.66917 12.4692 8.33083 12.4692 8.12375 12.2592C8.02419 12.1587 7.96833 12.0229 7.96833 11.8815C7.96833 11.74 8.02419 11.6042 8.12375 11.5037V10.4129L7.35083 11.1858C7.35083 11.4804 7.11167 11.7196 6.81417 11.7196C6.67261 11.7196 6.53685 11.6633 6.43675 11.5633C6.33665 11.4632 6.28042 11.3274 6.28042 11.1858C6.28042 11.0443 6.33665 10.9085 6.43675 10.8084C6.53685 10.7083 6.67261 10.6521 6.81417 10.6521L7.58708 9.87625H6.49625C6.28625 10.0833 5.94792 10.0833 5.74083 9.87625C5.69092 9.82712 5.65128 9.76856 5.62422 9.70396C5.59716 9.63937 5.58323 9.57003 5.58323 9.5C5.58323 9.42997 5.59716 9.36063 5.62422 9.29604C5.65128 9.23144 5.69092 9.17288 5.74083 9.12375C5.84133 9.02418 5.97708 8.96833 6.11854 8.96833C6.26001 8.96833 6.39575 9.02418 6.49625 9.12375Z" fill="#C5C5C5"/>
</svg>

<svg xmlns="http://www.w3.org/2000/svg" width="16" height="16" fill="#c5c5c5" xmlns:v="https://vecta.io/nano"><path fill-rule="evenodd" d="M4 1L3 2v12l1 1h9l1-1V5l-.293-.707-3-3L10 1H4zm0 13V2h5v4h4v8H4zm9-9l-3-3v3h3z"/><path d="M6.496 9.124h1.091l-.773-.773c-.295 0-.534-.239-.534-.537 0-.142.056-.277.156-.377s.236-.156.377-.156c.298 0 .537.239.537.534l.773.773V7.496c-.1-.101-.155-.236-.155-.378s.056-.277.155-.378a.53.53 0 0 1 .376-.158.53.53 0 0 1 .376.158c.207.207.207.545 0 .755v1.091l.776-.773c0-.142.056-.277.156-.377s.236-.156.377-.156.277.056.377.156.156.236.156.377c0 .298-.239.537-.534.537l-.773.773h1.091c.1-.1.236-.155.378-.155s.277.056.378.155a.53.53 0 0 1 0 .753c-.207.207-.545.207-.755 0H9.413l.773.776a.53.53 0 0 1 .534.534c0 .142-.056.277-.156.377s-.236.156-.377.156a.53.53 0 0 1-.534-.534l-.776-.773v1.091c.207.21.207.548 0 .755a.53.53 0 0 1-.753 0c-.1-.101-.155-.236-.155-.378s.056-.277.155-.378v-1.091l-.773.773c0 .295-.239.534-.537.534-.142 0-.277-.056-.377-.156s-.156-.236-.156-.377.056-.277.156-.377.236-.156.377-.156l.773-.776H6.496c-.21.207-.548.207-.755 0a.53.53 0 0 1-.158-.376.53.53 0 0 1 .158-.376c.101-.1.236-.155.378-.155s.277.056.378.155z"/></svg>
